X:4
T:Cochinchine
R:---
O:Douteuse
C:Inconnu
M:2/4
L:1/16
K:C
V:1
g2gg eceg |eceg gfdB| g2gg eceg| gfdB c4:|:
e2ee cAAA|f2ff dBBB|g2gg eceg|gfdBc4:|
T:Cochinchine
C:Trad. ???
O:France
M:2/4
L:1/8
K:G
"G"d2 dd|BG Bd|BG Bd|"D"dc AF|"G"d2 dd|BG Bd|"D"dc AF|"G"G4::
"G"B2 BB|"Em"GE EE|"Am"c2 cc|"D"AF FF|"G"d2 dd|BG Bd|"D"dc AF|"G"G4:|

%%footer $D   Galouvielle-MBe 2006 \nRondanse (France)
